src/basic/700/u1F5A8-printer.svg

<svg width="16" height="20" viewBox="0 0 16 20" fill="none" xmlns="http://www.w3.org/2000/svg">
<path fill-rule="evenodd" clip-rule="evenodd" d="M9.5,2c0.13261,0 0.25978,0.05268 0.35355,0.14645l0.00027,0.00026l2.99978,2.99974l0.0004,0.0004c0.0902,0.09045 0.146,0.21528 0.146,0.35315v1.5h1.5c0.8284,0 1.5,0.67157 1.5,1.5v5c0,0.8284 -0.6716,1.5 -1.5,1.5h-1.5v2.7c0,0.1657 -0.1343,0.3 -0.3,0.3h-9.4c-0.16569,0 -0.3,-0.1343 -0.3,-0.3v-5.7h-0.5c-0.27614,0 -0.5,-0.2239 -0.5,-0.5c0,-0.2761 0.22386,-0.5 0.5,-0.5h0.8h9.4h0.8c0.2761,0 0.5,0.2239 0.5,0.5c0,0.2761 -0.2239,0.5 -0.5,0.5h-0.5v2h1.5c0.2761,0 0.5,-0.2239 0.5,-0.5v-5c0,-0.27614 -0.2239,-0.5 -0.5,-0.5h-2h-9h-2c-0.27614,0 -0.5,0.22386 -0.5,0.5v5c0,0.2761 0.22386,0.5 0.5,0.5h1.499v1h-1.499c-0.82843,0 -1.5,-0.6716 -1.5,-1.5v-5c0,-0.82843 0.67157,-1.5 1.5,-1.5h1.5v-4.5c0,-0.27614 0.22386,-0.5 0.5,-0.5zM4,17h8v-5h-8zM12,6h-2.5c-0.27614,0 -0.5,-0.22386 -0.5,-0.5v-2.5h-5v4h8zM11.2929,5l-1.2929,-1.29289v1.29289zM13.5,9c0.2761,0 0.5,0.22386 0.5,0.5c0,0.27614 -0.2239,0.5 -0.5,0.5h-1c-0.2761,0 -0.5,-0.22386 -0.5,-0.5c0,-0.27614 0.2239,-0.5 0.5,-0.5zM5,15.5c0,-0.2761 0.22386,-0.5 0.5,-0.5h5c0.2761,0 0.5,0.2239 0.5,0.5c0,0.2761 -0.2239,0.5 -0.5,0.5h-5c-0.27614,0 -0.5,-0.2239 -0.5,-0.5zM10.5,13c0.2761,0 0.5,0.2239 0.5,0.5c0,0.2761 -0.2239,0.5 -0.5,0.5h-5c-0.27614,0 -0.5,-0.2239 -0.5,-0.5c0,-0.2761 0.22386,-0.5 0.5,-0.5z" fill="black"/>
</svg>

<svg width="16" height="20" viewBox="0 0 16 20" fill="none" xmlns="http://www.w3.org/2000/svg">
<path fill-rule="evenodd" clip-rule="evenodd" d="M3 2.5C3 2.22386 3.22386 2 3.5 2H9.5C9.63261 2 9.75978 2.05268 9.85355 2.14645L9.85382 2.14671L12.8536 5.14645L12.854 5.14685C12.9442 5.2373 13 5.36213 13 5.5V7H14.5C15.3284 7 16 7.67157 16 8.5V13.5C16 14.3284 15.3284 15 14.5 15H13V17.7C13 17.8657 12.8657 18 12.7 18H3.3C3.13431 18 3 17.8657 3 17.7V12H2.5C2.22386 12 2 11.7761 2 11.5C2 11.2239 2.22386 11 2.5 11H3.3H12.7H13.5C13.7761 11 14 11.2239 14 11.5C14 11.7761 13.7761 12 13.5 12H13V14H14.5C14.7761 14 15 13.7761 15 13.5V8.5C15 8.22386 14.7761 8 14.5 8H12.5H3.5H1.5C1.22386 8 1 8.22386 1 8.5V13.5C1 13.7761 1.22386 14 1.5 14H2.999V15H1.5C0.671573 15 0 14.3284 0 13.5V8.5C0 7.67157 0.671573 7 1.5 7H3V2.5ZM12 12H4V17H12V12ZM4 7H12V6H10.001V5H11.2929L10 3.70711V5V6H9.5C9.22386 6 9 5.77614 9 5.5V3H4V7ZM12 9.5C12 9.22386 12.2239 9 12.5 9H13.5C13.7761 9 14 9.22386 14 9.5C14 9.77614 13.7761 10 13.5 10H12.5C12.2239 10 12 9.77614 12 9.5ZM5.5 15C5.22386 15 5 15.2239 5 15.5C5 15.7761 5.22386 16 5.5 16H10.5C10.7761 16 11 15.7761 11 15.5C11 15.2239 10.7761 15 10.5 15H5.5ZM5 13.5C5 13.2239 5.22386 13 5.5 13H10.5C10.7761 13 11 13.2239 11 13.5C11 13.7761 10.7761 14 10.5 14H5.5C5.22386 14 5 13.7761 5 13.5Z" fill="black"/>
</svg>
